**kern	**silbe	**harmony	**phrase	**leadinstrument	**rhyme	**timestamp	**harte
*ICvox	*	*M4/4	*	*	*	*	*M4/4
*VRlead	*	*	*	*	*	*	*
*Hstimme	*	*	*	*	*	*	*
*A:	*	*A:	*	*	*	*	*A:
*M4/4	*	*	*	*	*	*	*
*clefF4	*	*	*	*	*	*	*
r;	.	1r;	.	r	.	0	N.C.
=1	=1	=1	=1	=1	=1	=1	=1
*>Letter>A	*>Letter>A	*>Letter>A	*>Letter>A	*>Letter>A	*>Letter>A	*>Letter>A	*>Letter>A
*>Label>Intro	*>Label>Intro	*>Label>Intro	*>Label>Intro	*>Label>Intro	*>Label>Intro	*>Label>Intro	*>Label>Intro
1r	.	1AM	newline	guitar	.	0.348	A:maj
=2	=2	=2	=2	=2	=2	=2	=2
1r	.	1AMm	.	guitar	.	1.6	A:7
=3	=3	=3	=3	=3	=3	=3	=3
1r	.	1AM	.	guitar	.	2.851	A:maj
=4	=4	=4	=4	=4	=4	=4	=4
1r	.	1AM	.	guitar	.	4.102	A:maj
=5	=5	=5	=5	=5	=5	=5	=5
1r	.	1AM	newline	guitar	.	5.354	A:maj
=6	=6	=6	=6	=6	=6	=6	=6
1r	.	1AMm	.	guitar	.	6.611	A:7
=7	=7	=7	=7	=7	=7	=7	=7
1r	.	1AM	.	guitar	.	7.869	A:maj
=8	=8	=8	=8	=8	=8	=8	=8
1r	.	1AM	.	guitar	.	9.126	A:maj
=9	=9	=9	=9	=9	=9	=9	=9
1r	.	1AMm	newline	guitar	.	10.384	A:7
=10	=10	=10	=10	=10	=10	=10	=10
1r	.	1AMm	.	guitar	.	11.636	A:7
=11	=11	=11	=11	=11	=11	=11	=11
1r	.	1AMm	.	guitar	.	12.887	A:7
=12	=12	=12	=12	=12	=12	=12	=12
1r	.	1AMm	.	guitar	.	14.139	A:7
=13	=13	=13	=13	=13	=13	=13	=13
1r	.	1AMm	newline	guitar	.	15.391	A:7
=14	=14	=14	=14	=14	=14	=14	=14
1r	.	1AMm	.	guitar	.	16.63	A:7
=15	=15	=15	=15	=15	=15	=15	=15
1r	.	1AMm	.	guitar	.	17.869	A:7
=16	=16	=16	=16	=16	=16	=16	=16
1r	.	1AMm	.	guitar	.	19.108	A:7
=17	=17	=17	=17	=17	=17	=17	=17
*>Letter>B	*>Letter>B	*>Letter>B	*>Letter>B	*>Letter>B	*>Letter>B	*>Letter>B	*>Letter>B
*>Label>Verse	*>Label>Verse	*>Label>Verse	*>Label>Verse	*>Label>Verse	*>Label>Verse	*>Label>Verse	*>Label>Verse
8G	There	1AMm	newline	voice	.	20.347	A:7
4G	is	.	.	.	.	.	.
4G	no-	.	.	.	.	.	.
4A	-thing	.	.	.	.	.	.
[8B	that	.	.	.	.	.	.
=18	=18	=18	=18	=18	=18	=18	=18
8B]	_	1AMm	.	voice	.	21.576	A:7
4B	is	.	.	.	.	.	.
4A	wrong	.	.	.	.	.	.
8r	.	.	.	.	.	.	.
4r	.	.	.	.	.	.	.
=19	=19	=19	=19	=19	=19	=19	=19
8G	Wan-	1AMm	.	voice	.	22.805	A:7
4G	-ting	.	.	.	.	.	.
4G	you	.	.	.	.	.	.
4A	to	.	.	.	.	.	.
[8B	stay	.	.	.	.	.	.
=20	=20	=20	=20	=20	=20	=20	=20
4.B]	_	1AMm	.	voice	.	24.035	A:7
4.A	here	.	.	.	.	.	.
4G	with	.	.	.	.	.	.
=21	=21	=21	=21	=21	=21	=21	=21
2F#	me	1DM	newline	voice	A	25.264	D:maj
2r	.	.	.	.	.	.	.
=22	=22	=22	=22	=22	=22	=22	=22
2r	.	1DM	.	voice	.	26.555	D:maj
4r	.	.	.	.	.	.	.
8r	.	.	.	.	.	.	.
8G	I	.	.	.	.	.	.
=23	=23	=23	=23	=23	=23	=23	=23
8G	know	1AMm	newline	voice	.	27.845	A:7
4G	you	.	.	.	.	.	.
4G	got	.	.	.	.	.	.
4A	some-	.	.	.	.	.	.
[8B	-where	.	.	.	.	.	.
=24	=24	=24	=24	=24	=24	=24	=24
4B]	_	1AMm	.	voice	.	29.086	A:7
8B	to	.	.	.	.	.	.
4A	go	.	.	.	.	.	.
8r	.	.	.	.	.	.	.
8r	.	.	.	.	.	.	.
8G	but	.	.	.	.	.	.
=25	=25	=25	=25	=25	=25	=25	=25
8G	won't	1AMm	.	voice	.	30.327	A:7
4G	you	.	.	.	.	.	.
4G	make	.	.	.	.	.	.
4A	your-	.	.	.	.	.	.
[8B	-self	.	.	.	.	.	.
=26	=26	=26	=26	=26	=26	=26	=26
8B]	_	1AMm	.	voice	.	31.568	A:7
4B	at	.	.	.	.	.	.
8B	home	.	.	.	.	.	.
4A	_	.	.	.	.	.	.
4G	and	.	.	.	.	.	.
=27	=27	=27	=27	=27	=27	=27	=27
4F#	stay	1DM	newline	voice	.	32.809	D:maj
8A	with	.	.	.	.	.	.
4.A	me	.	.	.	A	.	.
4r	.	.	.	.	.	.	.
=28	=28	=28	=28	=28	=28	=28	=28
2r	.	1DM	.	voice	.	34.063	D:maj
8r	.	.	.	.	.	.	.
8A	and	.	.	.	.	.	.
8A	don't	.	.	.	.	.	.
8A	you	.	.	.	.	.	.
=29	=29	=29	=29	=29	=29	=29	=29
4B	e-	1EM	.	voice	.	35.316	E:maj
8B	-ver	.	.	.	.	.	.
4.c#	leave	.	.	.	A	.	.
4r	.	.	.	.	.	.	.
=30	=30	=30	=30	=30	=30	=30	=30
1r	.	1EM	.	voice	.	36.57	E:maj
=31	=31	=31	=31	=31	=31	=31	=31
*>Letter>C	*>Letter>C	*>Letter>C	*>Letter>C	*>Letter>C	*>Letter>C	*>Letter>C	*>Letter>C
*>Label>Chorus	*>Label>Chorus	*>Label>Chorus	*>Label>Chorus	*>Label>Chorus	*>Label>Chorus	*>Label>Chorus	*>Label>Chorus
2e	Lay	1AM	newline	voice	.	37.824	A:maj
4.c#	down	.	.	.	.	.	.
[8A	Sa-	.	.	.	.	.	.
=32	=32	=32	=32	=32	=32	=32	=32
8A]	_	1AM	.	voice	.	39.08	A:maj
8A	-lly	.	.	.	A	.	.
4r	.	.	.	.	.	.	.
4r	.	.	.	.	.	.	.
8r	.	.	.	.	.	.	.
8A	and	.	.	.	.	.	.
=33	=33	=33	=33	=33	=33	=33	=33
4A	rest	1DM	.	voice	.	40.335	D:maj
8A	here	.	.	.	.	.	.
4A	in	.	.	.	.	.	.
4A	my	.	.	.	.	.	.
[8D	arms	.	.	.	.	.	.
=34	=34	=34	=34	=34	=34	=34	=34
4D]	_	1DM	.	voice	.	41.591	D:maj
4r	.	.	.	.	.	.	.
2r	.	.	.	.	.	.	.
=35	=35	=35	=35	=35	=35	=35	=35
4B	Don't	1EM	newline	voice	.	42.847	E:maj
8B	you	.	.	.	.	.	.
4B	think	.	.	.	.	.	.
4B	you	.	.	.	.	.	.
[8c#	want	.	.	.	.	.	.
=36	=36	=36	=36	=36	=36	=36	=36
8c#]	_	1EM	.	voice	.	44.095	E:maj
4c#	some-	.	.	.	.	.	.
8c#	-one	.	.	.	.	.	.
4B	_	.	.	.	.	.	.
8A	to	.	.	.	.	.	.
[8A	talk	.	.	.	.	.	.
=37	=37	=37	=37	=37	=37	=37	=37
4A]	_	1AM	.	voice	.	45.343	A:maj
8E	to?	.	.	.	B	.	.
8r	.	.	.	.	.	.	.
2r	.	.	.	.	.	.	.
=38	=38	=38	=38	=38	=38	=38	=38
1r	.	1AM	.	voice	.	46.592	A:maj
=39	=39	=39	=39	=39	=39	=39	=39
2e	Lay	1AM	newline	voice	.	47.84	A:maj
4.c#	down	.	.	.	.	.	.
[8A	Sa-	.	.	.	.	.	.
=40	=40	=40	=40	=40	=40	=40	=40
8A]	_	1AM	.	voice	.	49.108	A:maj
8A	-lly	.	.	.	.	.	.
4r	.	.	.	.	.	.	.
4r	.	.	.	.	.	.	.
8r	.	.	.	.	.	.	.
8A	No	.	.	.	.	.	.
=41	=41	=41	=41	=41	=41	=41	=41
4A	need	1DM	.	voice	.	50.375	D:maj
8A	to	.	.	.	.	.	.
4A	leave	.	.	.	.	.	.
4A	so	.	.	.	.	.	.
[8D	soon	.	.	.	B	.	.
=42	=42	=42	=42	=42	=42	=42	=42
4D]	_	1DM	.	voice	.	51.643	D:maj
8r	.	.	.	.	.	.	.
8r	.	.	.	.	.	.	.
2r	.	.	.	.	.	.	.
=43	=43	=43	=43	=43	=43	=43	=43
8B	I've	1EM	newline	voice	.	52.911	E:maj
4B	been	.	.	.	.	.	.
2B	trying	.	.	.	.	.	.
[8c#	all	.	.	.	.	.	.
=44	=44	=44	=44	=44	=44	=44	=44
8c#]	_	1EM	.	voice	.	54.157	E:maj
4c#	night	.	.	.	.	.	.
8c#	long	.	.	.	.	.	.
4B	_	.	.	.	.	.	.
8A	just	.	.	.	.	.	.
8A	to	.	.	.	.	.	.
=45	=45	=45	=45	=45	=45	=45	=45
4A	talk	1AM	.	voice	.	55.404	A:maj
8F#	to	.	.	.	.	.	.
4.A	you	.	.	.	B	.	.
4r	.	.	.	.	.	.	.
=46	=46	=46	=46	=46	=46	=46	=46
1r	.	1AM	.	voice	.	56.65	A:maj
=47	=47	=47	=47	=47	=47	=47	=47
*>Letter>D	*>Letter>D	*>Letter>D	*>Letter>D	*>Letter>D	*>Letter>D	*>Letter>D	*>Letter>D
*>Label>Interlude	*>Label>Interlude	*>Label>Interlude	*>Label>Interlude	*>Label>Interlude	*>Label>Interlude	*>Label>Interlude	*>Label>Interlude
1r	.	1AMm	newline	guitar	.	57.897	A:7
=48	=48	=48	=48	=48	=48	=48	=48
1r	.	1AMm	.	guitar	.	59.157	A:7
=49	=49	=49	=49	=49	=49	=49	=49
1r	.	1AMm	.	guitar	.	60.417	A:7
=50	=50	=50	=50	=50	=50	=50	=50
1r	.	1AMm	.	guitar	.	61.677	A:7
=51	=51	=51	=51	=51	=51	=51	=51
1r	.	1AMm	newline	guitar	.	62.937	A:7
=52	=52	=52	=52	=52	=52	=52	=52
1r	.	1AMm	.	guitar	.	64.188	A:7
=53	=53	=53	=53	=53	=53	=53	=53
1r	.	1AMm	.	guitar	.	65.44	A:7
=54	=54	=54	=54	=54	=54	=54	=54
1r	.	1AMm	.	guitar	.	66.691	A:7
=55	=55	=55	=55	=55	=55	=55	=55
*>Letter>B	*>Letter>B	*>Letter>B	*>Letter>B	*>Letter>B	*>Letter>B	*>Letter>B	*>Letter>B
*>Label>Verse	*>Label>Verse	*>Label>Verse	*>Label>Verse	*>Label>Verse	*>Label>Verse	*>Label>Verse	*>Label>Verse
8G	Sun	1AMm	newline	voice	.	67.943	A:7
4G	ain't	.	.	.	.	.	.
4G	near-	.	.	.	.	.	.
4A	-ly	.	.	.	.	.	.
[8B	on	.	.	.	.	.	.
=56	=56	=56	=56	=56	=56	=56	=56
8B]	_	1AMm	.	voice	.	69.18	A:7
4B	the	.	.	.	.	.	.
4.A	rise	.	.	.	C	.	.
4r	.	.	.	.	.	.	.
=57	=57	=57	=57	=57	=57	=57	=57
8G	We	1AMm	.	voice	.	70.417	A:7
4G	still	.	.	.	.	.	.
4G	got	.	.	.	.	.	.
4A	the	.	.	.	.	.	.
[8B	moon	.	.	.	.	.	.
=58	=58	=58	=58	=58	=58	=58	=58
8B]	_	1AMm	.	voice	.	71.654	A:7
4B	and	.	.	.	.	.	.
8B	stars	.	.	.	.	.	.
4A	_	.	.	.	.	.	.
8G	a-	.	.	.	.	.	.
[8F#	-bove	.	.	.	.	.	.
=59	=59	=59	=59	=59	=59	=59	=59
4F#]	_	1DM	newline	voice	.	72.891	D:maj
4r	.	.	.	.	.	.	.
2r	.	.	.	.	.	.	.
=60	=60	=60	=60	=60	=60	=60	=60
1r	.	1DM	.	voice	.	74.16	D:maj
=61	=61	=61	=61	=61	=61	=61	=61
8G	Un-	1AMm	newline	voice	.	75.428	A:7
4G	-der-	.	.	.	.	.	.
4G	-neath	.	.	.	.	.	.
4A	the	.	.	.	.	.	.
[8B	vel-	.	.	.	.	.	.
=62	=62	=62	=62	=62	=62	=62	=62
8B]	_	1AMm	.	voice	.	76.698	A:7
4B	-vet	.	.	.	.	.	.
4.A	skies	.	.	.	C	.	.
4r	.	.	.	.	.	.	.
=63	=63	=63	=63	=63	=63	=63	=63
8G	love	1AMm	.	voice	.	77.969	A:7
4G	is	.	.	.	.	.	.
4G	all	.	.	.	.	.	.
4A	that	.	.	.	.	.	.
[8B	ma-	.	.	.	.	.	.
=64	=64	=64	=64	=64	=64	=64	=64
8B]	_	1AMm	.	voice	.	79.24	A:7
4B	-tters	.	.	.	.	.	.
8B	Won't	.	.	.	.	.	.
4A	_	.	.	.	.	.	.
4G	you	.	.	.	.	.	.
=65	=65	=65	=65	=65	=65	=65	=65
4F#	stay	1DM	newline	voice	.	80.51	D:maj
8A	with	.	.	.	.	.	.
4.A	me?	.	.	.	A	.	.
4r	.	.	.	.	.	.	.
=66	=66	=66	=66	=66	=66	=66	=66
2r	.	1DM	.	voice	.	81.763	D:maj
4r	.	.	.	.	.	.	.
8A	Don't	.	.	.	.	.	.
8A	you	.	.	.	.	.	.
=67	=67	=67	=67	=67	=67	=67	=67
4B	e-	1EM	.	voice	.	83.015	E:maj
8B	-ver	.	.	.	.	.	.
4.c#	leave	.	.	.	A	.	.
4r	.	.	.	.	.	.	.
=68	=68	=68	=68	=68	=68	=68	=68
1r	.	1EM	.	voice	.	84.268	E:maj
=69	=69	=69	=69	=69	=69	=69	=69
*>Letter>C	*>Letter>C	*>Letter>C	*>Letter>C	*>Letter>C	*>Letter>C	*>Letter>C	*>Letter>C
*>Label>Chorus	*>Label>Chorus	*>Label>Chorus	*>Label>Chorus	*>Label>Chorus	*>Label>Chorus	*>Label>Chorus	*>Label>Chorus
2e	Lay	1AM	newline	voice	.	85.52	A:maj
4.c#	down	.	.	.	.	.	.
[8A	Sa-	.	.	.	.	.	.
=70	=70	=70	=70	=70	=70	=70	=70
8A]	_	1AM	.	voice	.	86.768	A:maj
8A	-lly	.	.	.	A	.	.
4r	.	.	.	.	.	.	.
4r	.	.	.	.	.	.	.
8r	.	.	.	.	.	.	.
8A	and	.	.	.	.	.	.
=71	=71	=71	=71	=71	=71	=71	=71
4A	rest	1DM	.	voice	.	88.016	D:maj
8A	here	.	.	.	.	.	.
4A	in	.	.	.	.	.	.
4A	my	.	.	.	.	.	.
[8D	arms	.	.	.	.	.	.
=72	=72	=72	=72	=72	=72	=72	=72
4D]	_	1DM	.	voice	.	89.264	D:maj
4r	.	.	.	.	.	.	.
2r	.	.	.	.	.	.	.
=73	=73	=73	=73	=73	=73	=73	=73
4B	Don't	1EM	newline	voice	.	90.512	E:maj
8B	you	.	.	.	.	.	.
4B	think	.	.	.	.	.	.
4B	you	.	.	.	.	.	.
[8c#	want	.	.	.	.	.	.
=74	=74	=74	=74	=74	=74	=74	=74
8c#]	_	1EM	.	voice	.	91.769	E:maj
4c#	some-	.	.	.	.	.	.
8c#	-one	.	.	.	.	.	.
4B	_	.	.	.	.	.	.
8A	to	.	.	.	.	.	.
[8A	talk	.	.	.	.	.	.
=75	=75	=75	=75	=75	=75	=75	=75
4A]	_	1AM	.	voice	.	93.026	A:maj
8E	to?	.	.	.	B	.	.
8r	.	.	.	.	.	.	.
2r	.	.	.	.	.	.	.
=76	=76	=76	=76	=76	=76	=76	=76
1r	.	1AM	.	voice	.	94.282	A:maj
=77	=77	=77	=77	=77	=77	=77	=77
2e	Lay	1AM	newline	voice	.	95.539	A:maj
4.c#	down	.	.	.	.	.	.
[8A	Sa-	.	.	.	.	.	.
=78	=78	=78	=78	=78	=78	=78	=78
8A]	_	1AM	.	voice	.	96.799	A:maj
8A	-lly	.	.	.	.	.	.
4r	.	.	.	.	.	.	.
8r	.	.	.	.	.	.	.
8A	Ain't	.	.	.	.	.	.
4A	no	.	.	.	.	.	.
=79	=79	=79	=79	=79	=79	=79	=79
4A	need	1DM	.	voice	.	98.059	D:maj
8A	to	.	.	.	.	.	.
4A	leave	.	.	.	.	.	.
4A	so	.	.	.	.	.	.
8r	.	.	.	.	.	.	.
=80	=80	=80	=80	=80	=80	=80	=80
4D	soon	1DM	.	voice	B	99.32	D:maj
4r	.	.	.	.	.	.	.
2r	.	.	.	.	.	.	.
=81	=81	=81	=81	=81	=81	=81	=81
8B	I've	1EM	newline	voice	.	100.58	E:maj
4B	been	.	.	.	.	.	.
2B	trying	.	.	.	.	.	.
[8c#	all	.	.	.	.	.	.
=82	=82	=82	=82	=82	=82	=82	=82
8c#]	_	1EM	.	voice	.	101.817	E:maj
4c#	night	.	.	.	.	.	.
8c#	long	.	.	.	.	.	.
4B	_	.	.	.	.	.	.
8A	just	.	.	.	.	.	.
8A	to	.	.	.	.	.	.
=83	=83	=83	=83	=83	=83	=83	=83
4A	talk	1AM	.	voice	.	103.055	A:maj
8F#	to	.	.	.	.	.	.
4.A	you	.	.	.	B	.	.
4r	.	.	.	.	.	.	.
=84	=84	=84	=84	=84	=84	=84	=84
1r	.	1AM	.	voice	.	104.292	A:maj
=85	=85	=85	=85	=85	=85	=85	=85
*>Letter>E	*>Letter>E	*>Letter>E	*>Letter>E	*>Letter>E	*>Letter>E	*>Letter>E	*>Letter>E
*>Label>Solo	*>Label>Solo	*>Label>Solo	*>Label>Solo	*>Label>Solo	*>Label>Solo	*>Label>Solo	*>Label>Solo
1r	.	1AMm	newline	guitar	.	105.53	A:7
=86	=86	=86	=86	=86	=86	=86	=86
1r	.	1AMm	.	guitar	.	106.786	A:7
=87	=87	=87	=87	=87	=87	=87	=87
1r	.	1AMm	.	guitar	.	108.042	A:7
=88	=88	=88	=88	=88	=88	=88	=88
1r	.	1AMm	.	guitar	.	109.298	A:7
=89	=89	=89	=89	=89	=89	=89	=89
1r	.	1AMm	newline	guitar	.	110.554	A:7
=90	=90	=90	=90	=90	=90	=90	=90
1r	.	1AMm	.	guitar	.	111.807	A:7
=91	=91	=91	=91	=91	=91	=91	=91
1r	.	1AMm	.	guitar	.	113.061	A:7
=92	=92	=92	=92	=92	=92	=92	=92
1r	.	1AMm	.	guitar	.	114.315	A:7
=93	=93	=93	=93	=93	=93	=93	=93
1r	.	1AMm	newline	guitar	.	115.568	A:7
=94	=94	=94	=94	=94	=94	=94	=94
1r	.	1AMm	.	guitar	.	116.822	A:7
=95	=95	=95	=95	=95	=95	=95	=95
1r	.	1AMm	.	guitar	.	118.076	A:7
=96	=96	=96	=96	=96	=96	=96	=96
1r	.	1AMm	.	guitar	.	119.329	A:7
=97	=97	=97	=97	=97	=97	=97	=97
1r	.	1AMm	newline	guitar	.	120.583	A:7
=98	=98	=98	=98	=98	=98	=98	=98
1r	.	1AMm	.	guitar	.	121.819	A:7
=99	=99	=99	=99	=99	=99	=99	=99
1r	.	1AMm	.	guitar	.	123.054	A:7
=100	=100	=100	=100	=100	=100	=100	=100
1r	.	1AMm	.	guitar	.	124.29	A:7
=101	=101	=101	=101	=101	=101	=101	=101
1r	.	1AMm	newline	guitar	.	125.526	A:7
=102	=102	=102	=102	=102	=102	=102	=102
1r	.	1AMm	.	guitar	.	126.784	A:7
=103	=103	=103	=103	=103	=103	=103	=103
1r	.	1AMm	.	guitar	.	128.043	A:7
=104	=104	=104	=104	=104	=104	=104	=104
1r	.	1AMm	.	guitar	.	129.301	A:7
=105	=105	=105	=105	=105	=105	=105	=105
1r	.	1AMm	newline	guitar	.	130.56	A:7
=106	=106	=106	=106	=106	=106	=106	=106
1r	.	1AMm	.	guitar	.	131.786	A:7
=107	=107	=107	=107	=107	=107	=107	=107
1r	.	1AMm	.	guitar	.	133.011	A:7
=108	=108	=108	=108	=108	=108	=108	=108
1r	.	1AMm	.	guitar	.	134.237	A:7
=109	=109	=109	=109	=109	=109	=109	=109
1r	.	1AMm	newline	guitar	.	135.462	A:7
=110	=110	=110	=110	=110	=110	=110	=110
1r	.	1AMm	.	guitar	.	136.736	A:7
=111	=111	=111	=111	=111	=111	=111	=111
1r	.	1AMm	.	guitar	.	138.01	A:7
=112	=112	=112	=112	=112	=112	=112	=112
1r	.	1AMm	.	guitar	.	139.284	A:7
=113	=113	=113	=113	=113	=113	=113	=113
1r	.	1AMm	newline	guitar	.	140.559	A:7
=114	=114	=114	=114	=114	=114	=114	=114
1r	.	1AMm	.	guitar	.	141.796	A:7
=115	=115	=115	=115	=115	=115	=115	=115
1r	.	1AMm	.	guitar	.	143.033	A:7
=116	=116	=116	=116	=116	=116	=116	=116
2r	.	1AMm	.	guitar	.	144.27	A:7
4r	.	.	.	.	.	.	.
8r	.	.	.	.	.	.	.
8E	I	.	.	.	.	.	.
=117	=117	=117	=117	=117	=117	=117	=117
*>Letter>B	*>Letter>B	*>Letter>B	*>Letter>B	*>Letter>B	*>Letter>B	*>Letter>B	*>Letter>B
*>Label>Verse	*>Label>Verse	*>Label>Verse	*>Label>Verse	*>Label>Verse	*>Label>Verse	*>Label>Verse	*>Label>Verse
4G	long	1AMm	newline	voice	.	145.508	A:7
8G	to	.	.	.	.	.	.
4G	see	.	.	.	.	.	.
4A	the	.	.	.	.	.	.
[8B	morn-	.	.	.	.	.	.
=118	=118	=118	=118	=118	=118	=118	=118
8B]	_	1AMm	.	voice	.	146.78	A:7
4B	-ing	.	.	.	.	.	.
4.A	light	.	.	.	C	.	.
4r	.	.	.	.	.	.	.
=119	=119	=119	=119	=119	=119	=119	=119
8G	Col-	1AMm	.	voice	.	148.052	A:7
4G	-or-	.	.	.	.	.	.
4G	-ing	.	.	.	.	.	.
4A	your	.	.	.	.	.	.
[8B	face	.	.	.	.	.	.
=120	=120	=120	=120	=120	=120	=120	=120
8B]	_	1AMm	.	voice	.	149.324	A:7
4B	so	.	.	.	.	.	.
4.A	dream-	.	.	.	.	.	.
8G	-i-	.	.	.	.	.	.
[8F#	-ly	.	.	.	A	.	.
=121	=121	=121	=121	=121	=121	=121	=121
2F#]	_	1DM	newline	voice	.	150.595	D:maj
2r	.	.	.	.	.	.	.
=122	=122	=122	=122	=122	=122	=122	=122
2r	.	1DM	.	voice	.	151.873	D:maj
4.r	.	.	.	.	.	.	.
8G	So	.	.	.	.	.	.
=123	=123	=123	=123	=123	=123	=123	=123
8G	don't	1AMm	newline	voice	.	153.15	A:7
4G	you	.	.	.	.	.	.
4G	go	.	.	.	.	.	.
4A	and	.	.	.	.	.	.
[8B	say	.	.	.	.	.	.
=124	=124	=124	=124	=124	=124	=124	=124
8B]	_	1AMm	.	voice	.	154.386	A:7
4B	good-	.	.	.	.	.	.
4.A	-bye	.	.	.	C	.	.
4r	.	.	.	.	.	.	.
=125	=125	=125	=125	=125	=125	=125	=125
8G	You	1AMm	.	voice	.	155.622	A:7
4G	can	.	.	.	.	.	.
4G	lay	.	.	.	.	.	.
4A	your	.	.	.	.	.	.
[8B	wor-	.	.	.	.	.	.
=126	=126	=126	=126	=126	=126	=126	=126
8B]	_	1AMm	.	voice	.	156.858	A:7
4B	-ries	.	.	.	A	.	.
8B	down	.	.	.	.	.	.
4A	_	.	.	.	.	.	.
4G	and	.	.	.	.	.	.
=127	=127	=127	=127	=127	=127	=127	=127
4F#	stay	1DM	newline	voice	.	158.093	D:maj
8A	with	.	.	.	.	.	.
4.A	me	.	.	.	A	.	.
4r	.	.	.	.	.	.	.
=128	=128	=128	=128	=128	=128	=128	=128
2r	.	1DM	.	voice	.	159.36	D:maj
4r	.	.	.	.	.	.	.
8A	Don't	.	.	.	.	.	.
8A	you	.	.	.	.	.	.
=129	=129	=129	=129	=129	=129	=129	=129
4B	e-	1EM	.	voice	.	160.627	E:maj
8B	-ver	.	.	.	.	.	.
4.c#	leave	.	.	.	A	.	.
4r	.	.	.	.	.	.	.
=130	=130	=130	=130	=130	=130	=130	=130
1r	.	1EM	.	voice	.	161.893	E:maj
=131	=131	=131	=131	=131	=131	=131	=131
*>Letter>C	*>Letter>C	*>Letter>C	*>Letter>C	*>Letter>C	*>Letter>C	*>Letter>C	*>Letter>C
*>Label>Chorus	*>Label>Chorus	*>Label>Chorus	*>Label>Chorus	*>Label>Chorus	*>Label>Chorus	*>Label>Chorus	*>Label>Chorus
2e	Lay	1AM	newline	voice	.	163.16	A:maj
4.c#	down	.	.	.	.	.	.
[8A	Sa-	.	.	.	.	.	.
=132	=132	=132	=132	=132	=132	=132	=132
8A]	_	1AM	.	voice	.	164.424	A:maj
8A	-lly	.	.	.	A	.	.
4r	.	.	.	.	.	.	.
4r	.	.	.	.	.	.	.
8r	.	.	.	.	.	.	.
8A	and	.	.	.	.	.	.
=133	=133	=133	=133	=133	=133	=133	=133
4A	rest	1DM	.	voice	.	165.687	D:maj
8A	here	.	.	.	.	.	.
4A	in	.	.	.	.	.	.
4A	my	.	.	.	.	.	.
[8D	arms	.	.	.	.	.	.
=134	=134	=134	=134	=134	=134	=134	=134
4D]	_	1DM	.	voice	.	166.951	D:maj
4r	.	.	.	.	.	.	.
2r	.	.	.	.	.	.	.
=135	=135	=135	=135	=135	=135	=135	=135
4B	Don't	1EM	newline	voice	.	168.215	E:maj
8B	you	.	.	.	.	.	.
4B	think	.	.	.	.	.	.
4B	you	.	.	.	.	.	.
[8c#	want	.	.	.	.	.	.
=136	=136	=136	=136	=136	=136	=136	=136
8c#]	_	1EM	.	voice	.	169.487	E:maj
4c#	some-	.	.	.	.	.	.
8c#	-one	.	.	.	.	.	.
4B	_	.	.	.	.	.	.
8A	to	.	.	.	.	.	.
[8A	talk	.	.	.	.	.	.
=137	=137	=137	=137	=137	=137	=137	=137
4A]	_	1AM	.	voice	.	170.759	A:maj
8E	to?	.	.	.	B	.	.
8r	.	.	.	.	.	.	.
2r	.	.	.	.	.	.	.
=138	=138	=138	=138	=138	=138	=138	=138
1r	.	1AM	.	voice	.	172.031	A:maj
=139	=139	=139	=139	=139	=139	=139	=139
2e	Lay	1AM	newline	voice	.	173.303	A:maj
4.c#	down	.	.	.	.	.	.
[8A	Sa-	.	.	.	.	.	.
=140	=140	=140	=140	=140	=140	=140	=140
8A]	_	1AM	.	voice	.	174.568	A:maj
8A	-lly	.	.	.	.	.	.
4r	.	.	.	.	.	.	.
8r	.	.	.	.	.	.	.
8A	There's	.	.	.	.	.	.
4A	no	.	.	.	.	.	.
=141	=141	=141	=141	=141	=141	=141	=141
4A	need	1DM	.	voice	.	175.834	D:maj
8A	to	.	.	.	.	.	.
4A	leave	.	.	.	.	.	.
4A	so	.	.	.	.	.	.
[8D	soon	.	.	.	B	.	.
=142	=142	=142	=142	=142	=142	=142	=142
4D]	_	1DM	.	voice	.	177.099	D:maj
4r	.	.	.	.	.	.	.
2r	.	.	.	.	.	.	.
=143	=143	=143	=143	=143	=143	=143	=143
8B	I've	1EM	newline	voice	.	178.365	E:maj
4B	been	.	.	.	.	.	.
2B	trying	.	.	.	.	.	.
[8c#	all	.	.	.	.	.	.
=144	=144	=144	=144	=144	=144	=144	=144
8c#]	_	1EM	.	voice	.	179.629	E:maj
4c#	night	.	.	.	.	.	.
8c#	long	.	.	.	.	.	.
4B	_	.	.	.	.	.	.
8A	just	.	.	.	.	.	.
8A	to	.	.	.	.	.	.
=145	=145	=145	=145	=145	=145	=145	=145
4A	talk	1AM	.	voice	.	180.892	A:maj
8F#	to	.	.	.	.	.	.
4.A	you	.	.	.	B	.	.
4r	.	.	.	.	.	.	.
=146	=146	=146	=146	=146	=146	=146	=146
1r	.	1AM	.	voice	.	182.156	A:maj
=147	=147	=147	=147	=147	=147	=147	=147
*>Letter>C	*>Letter>C	*>Letter>C	*>Letter>C	*>Letter>C	*>Letter>C	*>Letter>C	*>Letter>C
*>Label>Chorus	*>Label>Chorus	*>Label>Chorus	*>Label>Chorus	*>Label>Chorus	*>Label>Chorus	*>Label>Chorus	*>Label>Chorus
2e	Lay	1AM	newline	voice	.	183.42	A:maj
4.c#	down	.	.	.	.	.	.
[8A	Sa-	.	.	.	.	.	.
=148	=148	=148	=148	=148	=148	=148	=148
8A]	_	1AM	.	voice	.	184.687	A:maj
8A	-lly	.	.	.	.	.	.
4r	.	.	.	.	.	.	.
4r	.	.	.	.	.	.	.
8r	.	.	.	.	.	.	.
8A	and	.	.	.	.	.	.
=149	=149	=149	=149	=149	=149	=149	=149
4A	rest	1DM	.	voice	.	185.955	D:maj
8A	here	.	.	.	.	.	.
4A	in	.	.	.	.	.	.
4A	my	.	.	.	.	.	.
[8D	arms	.	.	.	.	.	.
=150	=150	=150	=150	=150	=150	=150	=150
4D]	_	1DM	.	voice	.	187.222	D:maj
4r	.	.	.	.	.	.	.
2r	.	.	.	.	.	.	.
=151	=151	=151	=151	=151	=151	=151	=151
4B	Don't	1EM	newline	voice	.	188.489	E:maj
8B	you	.	.	.	.	.	.
4B	think	.	.	.	.	.	.
4B	you	.	.	.	.	.	.
[8c#	want	.	.	.	.	.	.
=152	=152	=152	=152	=152	=152	=152	=152
8c#]	_	1EM	.	voice	.	189.75	E:maj
4c#	some-	.	.	.	.	.	.
8c#	-one	.	.	.	.	.	.
4B	_	.	.	.	.	.	.
8A	to	.	.	.	.	.	.
[8A	talk	.	.	.	.	.	.
=153	=153	=153	=153	=153	=153	=153	=153
4A]	_	1AM	.	voice	.	191.01	A:maj
8E	to?	.	.	.	B	.	.
8r	.	.	.	.	.	.	.
2r	.	.	.	.	.	.	.
=154	=154	=154	=154	=154	=154	=154	=154
1r	.	1AM	.	voice	.	192.27	A:maj
=155	=155	=155	=155	=155	=155	=155	=155
2e	Lay	1AM	newline	voice	.	193.53	A:maj
4.c#	down	.	.	.	.	.	.
[8A	Sa-	.	.	.	.	.	.
=156	=156	=156	=156	=156	=156	=156	=156
8A]	_	1AM	.	voice	.	194.836	A:maj
8A	-lly	.	.	.	.	.	.
4r	.	.	.	.	.	.	.
8r	.	.	.	.	.	.	.
8A	There's	.	.	.	.	.	.
4A	no	.	.	.	.	.	.
=157	=157	=157	=157	=157	=157	=157	=157
4A	need	1DM	.	voice	.	196.142	D:maj
8A	to	.	.	.	.	.	.
4A	leave	.	.	.	.	.	.
4.A	so	.	.	.	.	.	.
=158	=158	=158	=158	=158	=158	=158	=158
4D	soon	1DM	.	voice	B	197.448	D:maj
4r	.	.	.	.	.	.	.
2r	.	.	.	.	.	.	.
=159	=159	=159	=159	=159	=159	=159	=159
8B	I've	1EM	newline	voice	.	198.754	E:maj
4B	been	.	.	.	.	.	.
2B	trying	.	.	.	.	.	.
[8c#	all	.	.	.	.	.	.
=160	=160	=160	=160	=160	=160	=160	=160
8c#]	_	1EM	.	voice	.	199.97	E:maj
4c#	night	.	.	.	.	.	.
8c#	long	.	.	.	.	.	.
4B	_	.	.	.	.	.	.
8A	just	.	.	.	.	.	.
8A	to	.	.	.	.	.	.
=161	=161	=161	=161	=161	=161	=161	=161
4A	talk	1AM	.	voice	.	201.187	A:maj
8F#	to	.	.	.	.	.	.
4.A	you	.	.	.	B	.	.
4r	.	.	.	.	.	.	.
=162	=162	=162	=162	=162	=162	=162	=162
1r	.	1AM	.	voice	.	202.403	A:maj
=163	=163	=163	=163	=163	=163	=163	=163
*>Letter>F	*>Letter>F	*>Letter>F	*>Letter>F	*>Letter>F	*>Letter>F	*>Letter>F	*>Letter>F
*>Label>Outro	*>Label>Outro	*>Label>Outro	*>Label>Outro	*>Label>Outro	*>Label>Outro	*>Label>Outro	*>Label>Outro
1r	.	1AMm	newline	guitar	.	203.619	A:7
=164	=164	=164	=164	=164	=164	=164	=164
1r	.	1AMm	.	guitar	.	204.891	A:7
=165	=165	=165	=165	=165	=165	=165	=165
1r	.	1AMm	.	guitar	.	206.164	A:7
=166	=166	=166	=166	=166	=166	=166	=166
1r	.	1AMm	.	guitar	.	207.436	A:7
=167	=167	=167	=167	=167	=167	=167	=167
1r	.	1AMm	newline	guitar	.	208.708	A:7
=168	=168	=168	=168	=168	=168	=168	=168
1r	.	1AMm	.	guitar	.	209.948	A:7
=169	=169	=169	=169	=169	=169	=169	=169
1r	.	1AMm	.	guitar	.	211.188	A:7
=170	=170	=170	=170	=170	=170	=170	=170
1r	.	1AMm	.	guitar	.	212.428	A:7
=171	=171	=171	=171	=171	=171	=171	=171
1r	.	1AMm	newline	fadeout guitar	.	213.668	A:7
=172	=172	=172	=172	=172	=172	=172	=172
1r	.	1AMm	.	fadeout guitar	.	214.936	A:7
=173	=173	=173	=173	=173	=173	=173	=173
1r	.	1AMm	.	fadeout guitar	.	216.204	A:7
=174	=174	=174	=174	=174	=174	=174	=174
1r	.	1AMm	.	fadeout guitar	.	217.472	A:7
=175	=175	=175	=175	=175	=175	=175	=175
1r	.	1AMm	newline	fadeout guitar	.	218.74	A:7
=176	=176	=176	=176	=176	=176	=176	=176
1r	.	1AMm	.	fadeout guitar	.	220.009	A:7
=177	=177	=177	=177	=177	=177	=177	=177
1r	.	1AMm	.	fadeout guitar	.	221.279	A:7
=178	=178	=178	=178	=178	=178	=178	=178
1r	.	1AMm	.	fadeout guitar	.	222.548	A:7
r;	.	1r;	.	r	.	226.673	N.C.
r;	.	1r;	.	r	.	230.844	N.C.
*-	*-	*-	*-	*-	*-	*-	*-
!!!BillboardChartDate: 1978/05/20
!!!BillboardPeak: 3
!!!BillboardWeeksOnChart: 23
!!!COC: Eric Clapton
!!!ENC: Nathaniel Condit-Schultz
!!!EST: Awating manual error checking and editing.
!!!OTL: Lay Down Sally
!!!RDF**chordsym: original McGill chord annotation + (implied pitch class set, with bass pitch in first position)
!!!RDF**harmony: **recip + pitch class of root + harmonic quality
!!!RDF**leadinstrument: original McGill primary instrumentation annotation
!!!RDF**phrase: newline = linebreak in original McGill transcription
!!!RDF**timestamp: McGill audio timestamp in seconds
!!!RDT: 2017/01/12/
!!!SampleActualRank: 24
!!!SampleID#: 1040
!!!SampleTargetRank: 24
